!!!OTL: DA DROBEN AUF JENEM BERGE
!!!ARE: Europa, Mitteleuropa, Deutschland
!!!SCT: B0452
!!!YEM: Copyright 1995, estate of Helmut Schaffrath.
**kern
*ICvox
*Ivox
*M6/8
*k[f#]
*G:
{8d
=1
8.g
16g
8g
8g
8f#
8g
=2
4f#
8e
4d}
{8d
=3
4g
8g
8a
8g
8a
=4
4.b
4r}
{16b
16cc
=5
4dd
8dd
8dd
8ee
8dd
=6
4dd
8cc
4cc}
{8cc
=7
8.b
16b
8b
8a
8g
8a
=8
4.g
4r}
==
!!!AGN: Liebes - Lied, Leid, Klage
!!!ONB: ESAC (Essen Associative Code) Database: BOEHME
!!!AMT: compound duple
!!!AIN: vox
!!!EED: Helmut Schaffrath
!!!EEV: 1.0
*-
